icon/hi/chevron-double-left.svg

<svg viewBox="0 0 20 20" fill="none" xmlns="http://www.w3.org/2000/svg" height="1em" width="1em">
  <path fill-rule="evenodd" clip-rule="evenodd" d="M15.7071 15.7071C15.3166 16.0976 14.6834 16.0976 14.2929 15.7071L9.29289 10.7071C8.90237 10.3166 8.90237 9.68342 9.29289 9.29289L14.2929 4.29289C14.6834 3.90237 15.3166 3.90237 15.7071 4.29289C16.0976 4.68342 16.0976 5.31658 15.7071 5.70711L11.4142 10L15.7071 14.2929C16.0976 14.6834 16.0976 15.3166 15.7071 15.7071ZM9.70711 15.7071C9.31658 16.0976 8.68342 16.0976 8.29289 15.7071L3.29289 10.7071C2.90237 10.3166 2.90237 9.68342 3.29289 9.29289L8.29289 4.29289C8.68342 3.90237 9.31658 3.90237 9.70711 4.29289C10.0976 4.68342 10.0976 5.31658 9.70711 5.70711L5.41421 10L9.70711 14.2929C10.0976 14.6834 10.0976 15.3166 9.70711 15.7071Z" fill="#374151"/>
</svg>

<svg width="20" height="20" fill="none" xmlns="http://www.w3.org/2000/svg"><path fill-rule="evenodd" clip-rule="evenodd" d="M15.707 15.707a1 1 0 0 1-1.414 0l-5-5a1 1 0 0 1 0-1.414l5-5a1 1 0 1 1 1.414 1.414L11.414 10l4.293 4.293a1 1 0 0 1 0 1.414Zm-6 0a1 1 0 0 1-1.414 0l-5-5a1 1 0 0 1 0-1.414l5-5a1 1 0 0 1 1.414 1.414L5.414 10l4.293 4.293a1 1 0 0 1 0 1.414Z" fill="#374151"/></svg>
